X:0771
T:The Plate Rant.
M:C|
L:1/8
Q:1/2=104
I: :: (1) :| (2) ||
Z:Jack Campin * www.campin.me.uk * 2009
K:D
f|d2(fd) cecA|ddfd (f/g/a) (fd)|d2fd cecA|   Bdce dDD:|
B|AF`FA  BGGB|AFdF  B(EE)B     |AFFA BGGB|[1 AFdF ADD:|\
                                          [2 Aaeg fdd|]
<end>
<start>
